X:1
T:Der hohe Himmel
T:Joachim a Burck
T:Source : Breitkopf & Härtel---Leipzig---R.Eitner---1898. First print : 20 Deutsche Liedlein zu 4 Stimmen---Erfurt---G.Baumann---1575. Editor : André Vierendeels (05/11/17). Notes : Original clefs : C3, C3, C3, F4 Editorial accidentals above the staff Text by Ludovico Helmbold (Christeliche Reimen) 
T:Der hohe Himmel
T:©
T:©
C:Joachim a Burck
Z:©
%%score [ 1 2 3 4 ]
L:1/8
Q:1/4=120
M:2/2
K:F
V:1 treble-8 nm="Tenor 1" snm="T 1"
V:2 treble-8 nm="Tenor 2" snm="T 2"
V:3 treble-8 nm="Tenor 3" snm="T 3"
V:4 bass nm="Bass" snm="B"
V:1
"^1)" d8 | g4 g4 | g4 g4 | a4 g4 | ^f8 | z4 g4 | e4 e4 | d2 e2 f2 e2 | d4 c4 | B4 A4 | B4 d4 | %11
w: Der|ho- he|Him- mel|jauch- tzen|soll|ja|Berg und|Thal _ _ _|_ sey|frreu- den-|vol, denn|
w: Was|ist denn|nun das|Zy- on|spricht:|der|Herr wil|bey _ _ _|_ mir|hal- ten|nicht, was|
 d4 f4 | g4 f4 | f6 f2 | f2 e2 d2 c2 | B4 B4 | d4 a2 f2- | f2 f4 d2- | d2 d2 d4 | %19
w: Gott der|hat sein|Volck ge-|tröst _ _ _|_ und|durch er- bar-|* mung uns|_ er- löst,|
w: sa- get|sie: der|Herr ist|fehr, _ _ _|_ und|wil mein nicht|_ ge- den-|* cken mehr,|
"^-natural" z2 g2 f4 | e2 d4 c2 | B4 A4 | =B8 |] %23
w: und durch|er- bar- mung|uns er-|löst.|
w: und wil|mein nicht ge-|den- cken|mehr.|
V:2
"^2)""^1)" B8 | _e4 e4 | B2 c2 d2 e2 | f2 F2 G4 | A2 A4 A2 | B4 B4 | c4 c4 | A8 | B4 G4- | G4 ^F4 | %10
w: Der|ho- he|Him- * * *||mel jauch- tzen|sol, ja|Berg und|Thal|sey freu-|* den-|
w: Wo|ge- schiehts?|Ist _ _ _|_ _ _|es auch ge-|mein, dass|je ein|Weib|so hart|_ kan|
 G4 z2 A2 | B4 A4 | G2 G2 B4- | B4 A4 | d2 c2 B2 A2 | G4 g4 | f4 e2 d2- | d2 c4 B2- | B2 A2 B4 | %19
w: vol, denn|Gott der|hat sein Volck|_ ge-|tröst _ _ _|_ und|durch er- bar-|* mung uns|_ er- löst,|
w: sein, dass|sie ihrs|Kin- de- leins|_ ver-|giss _ _ _|_ und|ih- res Lei-|* bes Sohn|_ ver- liess,|
 B4 A4- | A2 F2 F4 | D2 d4 d2 | d8 |] %23
w: und durch|_ er- bar-|mung uns er-|löst.|
w: und ih-|* res Lei-|bes Sohn ver-|liess.|
V:3
"^3)""^1)" G8 | B4 c4 | d4 B4 | c4 c4 | d8 | z4 d4 | g4 g4 | f4 d4 | f4 e4 | d8 | %10
w: Der|ho- he|Him- mel|jauch- tzen|sol,|ja|Berg und|Thal sey|freu- den-|vol,|
w: Und|wenn sie|schon der|glei- chen|thet,|so|ist doch|mein ge-|dacht- nis|stet,|
"^-natural" z4 f4 | f4 d4 | B4 d4 | c4 c4 | B8 | z4 d4 | A4 c2 B2- | B2 A4 G2- | G2 ^F2 G4 | %19
w: denn|Gott der|hat sein|Volck ge-|tröst|und|durch er- bar-|* mung uns|_ er- löst,|
w: sih'-|mei- ne|Hand dich|zeich- net|an,|so|spricht Gott, der|_ nicht lü-|* gen kan,|
 d4 d4 | c2 B4 A2 | G4 ^F4 | G8 |] %23
w: und durch|er- bar- mung|uns er-|löst.|
w: so spricht|Gott, der nicht|lü- gen|kan.|
V:4
"^4)""^1)" G,8 | _E,4 C,4 | G,4 G,4 | F,4 _E,4 | D,4 D,4 | G,4 G,4 | C,8 | D,8 | B,,4 C,4 | D,8 | %10
w: Der|ho- he|Him- mel|jauch- tzen|sol, ja|Berg und|Thal|sey|freu- den-|vol,|
 z4 D,4 | B,,4 D,4 | _E,4 B,,4 | F,4 F,4 | B,,8 | z4 G,,4 | D,4 A,,2 B,,2- | B,,2 F,,4 G,,2- | %18
w: denn|Gott der|hat sein|Volck ge-|tröst|und|durch er- bar-|* mung uns|
 G,,2 D,2 G,,4- | G,,2 G,,2 D,4 | A,,2 B,,4 F,,2 | G,,4 D,4 | G,,8 |] %23
w: _ er- löst,|_ und durch|er- bar- mung|uns er-|löst.|

